css/images/noun-istanbul-1039861.svg

<svg xmlns="http://www.w3.org/2000/svg" xmlns:xlink="http://www.w3.org/1999/xlink" version="1.1" x="0px" y="0px" viewBox="0 0 150 187.5" enable-background="new 0 0 150 150" xml:space="preserve"><g><g><g><polygon points="142.7403107,33.3752213 140.3857422,33.3752213 140.3857422,25.4044228 132.083252,6.4287901      123.7813416,25.4044228 123.7813416,32.982029 121.4267807,32.982029 121.4267807,24.9123554 132.083252,0.5538749      142.7403107,24.9123554    "/></g><g><polygon points="142.7403107,91.7380829 121.4267807,91.7380829 121.4267807,46.0838928 123.7813416,46.0838928      123.7813416,89.3835144 140.3857422,89.3835144 140.3857422,46.8277435 142.7403107,46.8277435    "/></g><g><path d="M147.2062683,48.1027489h-30.2460327l-1.408371-16.1979809h33.0627747L147.2062683,48.1027489z M119.1193466,45.7481842     h25.927803l0.9990845-11.4888496h-27.9259644L119.1193466,45.7481842z"/></g></g><g><g><polygon points="28.5737972,33.3752213 26.2192326,33.3752213 26.2192326,25.4044228 17.916748,6.4287901 9.6148367,25.4044228      9.6148367,32.982029 7.2602715,32.982029 7.2602715,24.9123554 17.916748,0.5538749 28.5737972,24.9123554    "/></g><g><polygon points="28.5737972,91.7380829 7.2602715,91.7380829 7.2602715,46.0838928 9.6148367,46.0838928 9.6148367,89.3835144      26.2192326,89.3835144 26.2192326,46.8277435 28.5737972,46.8277435    "/></g><g><path d="M33.0397682,48.1027489H2.7937262l-1.40837-16.1979809h33.0627823L33.0397682,48.1027489z M4.9528437,45.7481842     h25.9278069l0.9990807-11.4888496H3.9537632L4.9528437,45.7481842z"/></g></g><g><path d="M142.7403107,151.5231018H88.0231094v-25.4943695c0-7.1821136-5.84272-13.0248413-13.0248337-13.0248413    s-13.0248375,5.8427277-13.0248375,13.0248413v25.4943695H7.2562475V89.3835144h135.4840698V151.5231018z M90.3776779,149.1685333    h50.0080643V91.7380829H9.6108122v57.4304504h50.0080605v-23.139801c0-8.4801178,6.899292-15.3794022,15.3794022-15.3794022    s15.3794022,6.8992844,15.3794022,15.3794022V149.1685333z"/></g><g><path d="M127.3925171,140.0882874h-21.91539v-27.1223297c0-5.9232025,4.818924-10.7427063,10.7427063-10.7427063h0.429985    c5.9237747,0,10.7426987,4.8195038,10.7426987,10.7427063V140.0882874z M107.8316956,137.7337189h17.2062607v-24.7677612    c0-4.625206-3.7629395-8.3881378-8.3881378-8.3881378h-0.429985c-4.625206,0-8.3881378,3.7629318-8.3881378,8.3881378V137.7337189    z"/></g><g><path d="M43.1311722,140.0882874h-21.91539v-27.1223297c0-5.9232025,4.8189259-10.7427063,10.7427025-10.7427063h0.429985    c5.9237747,0,10.7427025,4.8195038,10.7427025,10.7427063V140.0882874z M23.5703468,137.7337189h17.2062607v-24.7677612    c0-4.625206-3.7629356-8.3881378-8.3881378-8.3881378h-0.429985c-4.6252022,0-8.3881378,3.7629318-8.3881378,8.3881378    V137.7337189z"/></g><g><path d="M100.9105606,91.7380829H48.7749977V77.1450653h52.1355629V91.7380829z M51.1295624,89.3835144h47.4264374v-9.8838806    H51.1295624V89.3835144z"/></g><g><g><path d="M49.9517059,79.4996338c-0.2753487,0-0.5512772-0.0954285-0.7748909-0.2920227     c-0.2218895-0.1942978-5.4259605-4.8505402-4.5757637-12.8707809     c1.0743828-10.1425629,11.1088753-20.566803,29.8246765-30.9864426c0.5685272-0.3115654,1.2859268-0.1126671,1.6009445,0.4564285     c0.3167419,0.5679474,0.1120987,1.2853546-0.4558487,1.6015167     c-22.4293022,12.4856339-27.948391,22.7581139-28.6284294,29.1756821     c-0.72258,6.8199615,3.7399406,10.8128357,3.7853546,10.8530731c0.489193,0.427681,0.5386276,1.1715317,0.1103668,1.6613007     C50.6053047,79.3639679,50.2793694,79.4996338,49.9517059,79.4996338z"/></g></g><g><g><path d="M100.0448456,79.5870056c-0.3265152,0-0.6518784-0.1345139-0.8841095-0.4000931     c-0.4294128-0.4874649-0.3822784-1.2301636,0.1040421-1.6589966c0.2011948-0.1805038,4.5366745-4.1469345,3.7819061-10.972641     c-0.7110825-6.4233208-6.2531662-16.6958008-28.6209564-29.1469421     c-0.5679474-0.3161621-0.7725906-1.0335693-0.4558487-1.6015167c0.3161621-0.5667953,1.0352936-0.7714424,1.6009445-0.4564285     c18.698555,10.4092941,28.7324753,20.8404312,29.8223801,31.0025406     c0.8639908,8.0570221-4.3487015,12.7454605-4.571167,12.9409103     C100.5984192,79.4904327,100.3207703,79.5870056,100.0448456,79.5870056z"/></g></g><g><rect x="49.952282" y="77.1450653" width="50.5426674" height="2.3545649"/></g><g><rect x="73.8209915" y="28.1671276" width="2.3545649" height="8.2122345"/></g><g><path d="M80.873764,31.6150475c-2.0544968,0-4.1118622-0.3828468-6.0841599-1.1508408    c-4.1745224-1.6233616-7.4660873-4.7758121-9.269371-8.8756046c-1.8027153-4.0997944-1.9015884-8.6560163-0.2776489-12.8293905    c1.6239319-4.1745238,4.7763824-7.4660864,8.8761749-9.2687998c0.9364243-0.4138884,1.9309082-0.7438493,2.9547043-0.9829848    c0.5484009-0.1276156,1.1163483,0.1540585,1.3451385,0.6725686c0.2282181,0.5185101,0.054039,1.1266961-0.413887,1.4463098    c-5.7179794,3.9054964-7.8420334,11.3474388-5.0505905,17.6937275l0,0    c2.7914505,6.3474388,9.7154541,9.812603,16.454361,8.2340794c0.5530014-0.1264648,1.1175003,0.1540585,1.3451385,0.6714191    c0.2287903,0.519659,0.0551834,1.1266956-0.412735,1.44631c-0.8639908,0.5909405-1.7791443,1.1002541-2.7213211,1.5141411    C85.4575806,31.1379261,83.1673965,31.6150475,80.873764,31.6150475z M72.0527725,3.4292493    c-2.057373,1.5842729-3.6502686,3.7020016-4.6160049,6.1830325c-1.3957291,3.5881815-1.3106461,7.5051746,0.2391357,11.0289745    s4.3791656,6.2336197,7.9673462,7.629343c2.4816055,0.9657383,5.1212921,1.2232685,7.6770554,0.776041    c-5.4110184-0.926651-10.1966019-4.4929886-12.521843-9.7792625l0,0    C68.4743576,13.9822531,69.080246,8.0452538,72.0527725,3.4292493z"/></g><g><path d="M88.0006943,18.2924404c-0.1511841,0-0.3035202-0.0287418-0.4478073-0.0885258    c-0.4144592-0.1701546-0.6961365-0.5610485-0.7266006-1.0082779l-0.3155899-4.6160059l-3.9802246-2.356864    c-0.3857269-0.2276382-0.6081924-0.655323-0.5742722-1.1025524c0.0339127-0.4460802,0.3184662-0.835825,0.7346497-1.0025301    l4.292366-1.7268338l1.0123062-4.5148325c0.0977249-0.4368821,0.43573-0.7806394,0.8708878-0.8864109    c0.4345856-0.1092205,0.8933105,0.0436882,1.1807327,0.3885952l2.967926,3.5490928l4.6062317-0.4322834    c0.4472275-0.0505862,0.8772125,0.1747527,1.1123199,0.5553002c0.2351151,0.3816972,0.2328186,0.8634171-0.0051727,1.2428145    l-2.4580307,3.9192929l1.8348999,4.2469549c0.1776276,0.4115887,0.1063461,0.8875599-0.1839523,1.2290182    c-0.2902908,0.3414574-0.7490158,0.4886189-1.1836014,0.3793983l-4.4872437-1.1266966l-3.4720612,3.0581751    C88.5600204,18.191267,88.2817917,18.2924404,88.0006943,18.2924404z M85.7823639,9.4122353l2.4603424,1.4566574    c0.3334045,0.1977463,0.5484009,0.5461025,0.5748444,0.9323988l0.19487,2.8546801l2.147049-1.8912401    c0.2914429-0.2552319,0.6880875-0.3506556,1.0646133-0.2575312l2.7736206,0.6967125l-1.1341629-2.6258917    c-0.1534882-0.3552542-0.1224442-0.7645435,0.0833511-1.092205l1.5198898-2.4235468l-2.8483582,0.2678781    c-0.3857193,0.0425382-0.7645416-0.1195679-1.0128784-0.4173374l-1.8343277-2.1936088l-0.6260071,2.7902975    c-0.0845032,0.3782482-0.3495102,0.6898136-0.7093582,0.8346748L85.7823639,9.4122353z"/></g></g><text x="0" y="165" fill="#000000" font-size="5px" font-weight="bold" font-family="'Helvetica Neue', Helvetica, Arial-Unicode, Arial, Sans-serif">Created by DinosoftLabs</text><text x="0" y="170" fill="#000000" font-size="5px" font-weight="bold" font-family="'Helvetica Neue', Helvetica, Arial-Unicode, Arial, Sans-serif">from the Noun Project</text></svg>

<svg width="150" height="188" viewBox="0 0 150 188" fill="none" xmlns="http://www.w3.org/2000/svg">
<g clip-path="url(#clip0_1_218)">
<path d="M142.74 33.3752H140.386V25.4044L132.083 6.42879L123.781 25.4044V32.982H121.427V24.9124L132.083 0.553875L142.74 24.9124V33.3752Z" fill="black"/>
<path d="M142.74 91.7381H121.427V46.0839H123.781V89.3835H140.386V46.8277H142.74V91.7381Z" fill="black"/>
<path d="M147.206 48.1027H116.96L115.552 31.9048H148.615L147.206 48.1027ZM119.119 45.7482H145.047L146.046 34.2593H118.12L119.119 45.7482Z" fill="black"/>
<path d="M28.5738 33.3752H26.2192V25.4044L17.9167 6.42879L9.61483 25.4044V32.982H7.26027V24.9124L17.9167 0.553875L28.5738 24.9124V33.3752Z" fill="black"/>
<path d="M28.5738 91.7381H7.26027V46.0839H9.61483V89.3835H26.2192V46.8277H28.5738V91.7381Z" fill="black"/>
<path d="M33.0398 48.1027H2.79373L1.38536 31.9048H34.4481L33.0398 48.1027ZM4.95285 45.7482H30.8807L31.8797 34.2593H3.95377L4.95285 45.7482Z" fill="black"/>
<path d="M142.74 151.523H88.0231V126.029C88.0231 118.847 82.1804 113.004 74.9983 113.004C67.8162 113.004 61.9734 118.847 61.9734 126.029V151.523H7.25626V89.3835H142.74V151.523ZM90.3777 149.169H140.386V91.7381H9.61082V149.169H59.6189V126.029C59.6189 117.549 66.5182 110.649 74.9983 110.649C83.4784 110.649 90.3777 117.549 90.3777 126.029V149.169Z" fill="black"/>
<path d="M127.393 140.088H105.477V112.966C105.477 107.043 110.296 102.223 116.22 102.223H116.65C122.574 102.223 127.393 107.043 127.393 112.966V140.088ZM107.832 137.734H125.038V112.966C125.038 108.341 121.275 104.578 116.65 104.578H116.22C111.595 104.578 107.832 108.341 107.832 112.966V137.734Z" fill="black"/>
<path d="M43.1312 140.088H21.2158V112.966C21.2158 107.043 26.0347 102.223 31.9585 102.223H32.3885C38.3123 102.223 43.1312 107.043 43.1312 112.966V140.088ZM23.5704 137.734H40.7766V112.966C40.7766 108.341 37.0137 104.578 32.3885 104.578H31.9585C27.3333 104.578 23.5704 108.341 23.5704 112.966V137.734Z" fill="black"/>
<path d="M100.911 91.7381H48.775V77.1451H100.911V91.7381ZM51.1296 89.3835H98.556V79.4996H51.1296V89.3835Z" fill="black"/>
<path d="M49.9517 79.4996C49.6764 79.4996 49.4004 79.4042 49.1768 79.2076C48.9549 79.0133 43.7509 74.3571 44.6011 66.3368C45.6754 56.1943 55.7099 45.77 74.4257 35.3504C74.9943 35.0388 75.7117 35.2377 76.0267 35.8068C76.3434 36.3748 76.1388 37.0922 75.5708 37.4083C53.1415 49.894 47.6224 60.1664 46.9424 66.584C46.2198 73.404 50.6823 77.3969 50.7277 77.4371C51.2169 77.8648 51.2664 78.6086 50.8381 79.0984C50.6053 79.364 50.2794 79.4996 49.9517 79.4996Z" fill="black"/>
<path d="M100.045 79.587C99.7183 79.587 99.393 79.4525 99.1607 79.1869C98.7313 78.6994 98.7785 77.9567 99.2648 77.5279C99.466 77.3474 103.801 73.381 103.047 66.5553C102.336 60.132 96.7935 49.8595 74.4257 37.4083C73.8578 37.0922 73.6531 36.3748 73.9699 35.8068C74.286 35.24 75.0052 35.0354 75.5708 35.3504C94.2694 45.7597 104.303 56.1908 105.393 66.3529C106.257 74.41 101.045 79.0984 100.822 79.2938C100.598 79.4904 100.321 79.587 100.045 79.587Z" fill="black"/>
<path d="M100.495 77.1451H49.9523V79.4996H100.495V77.1451Z" fill="black"/>
<path d="M76.1756 28.1671H73.821V36.3794H76.1756V28.1671Z" fill="black"/>
<path d="M80.8738 31.615C78.8193 31.615 76.7619 31.2322 74.7896 30.4642C70.6151 28.8408 67.3235 25.6884 65.5202 21.5886C63.7175 17.4888 63.6186 12.9326 65.2426 8.75921C66.8665 4.58469 70.019 1.29313 74.1188 -0.509586C75.0552 -0.923475 76.0497 -1.25344 77.0735 -1.49257C77.6219 -1.62019 78.1898 -1.33851 78.4186 -0.820003C78.6468 -0.301492 78.4726 0.306694 78.0047 0.626307C72.2867 4.5318 70.1627 11.9737 72.9541 18.32C75.7456 24.6675 82.6696 28.1326 89.4085 26.5541C89.9615 26.4276 90.526 26.7082 90.7536 27.2255C90.9824 27.7452 90.8088 28.3522 90.3409 28.6718C89.4769 29.2628 88.5617 29.7721 87.6196 30.186C85.4576 31.1379 83.1674 31.615 80.8738 31.615ZM72.0528 3.42925C69.9954 5.01352 68.4025 7.13125 67.4368 9.61228C66.041 13.2005 66.1261 17.1175 67.6759 20.6413C69.2257 24.1651 72.0551 26.8749 75.6432 28.2706C78.1248 29.2363 80.7645 29.4939 83.3203 29.0466C77.9093 28.12 73.1237 24.5537 70.7985 19.2674C68.4744 13.9823 69.0802 8.04526 72.0528 3.42925Z" fill="black"/>
<path d="M88.0007 18.2924C87.8495 18.2924 87.6972 18.2637 87.5529 18.2039C87.1384 18.0338 86.8568 17.6429 86.8263 17.1956L86.5107 12.5796L82.5305 10.2228C82.1448 9.99513 81.9223 9.56745 81.9562 9.12022C81.9901 8.67414 82.2747 8.28439 82.6909 8.11769L86.9832 6.39085L87.9955 1.87602C88.0933 1.43914 88.4313 1.09538 88.8664 0.989609C89.301 0.880388 89.7597 1.0333 90.0472 1.3782L93.0151 4.9273L97.6213 4.49501C98.0685 4.44443 98.4985 4.66977 98.7336 5.05031C98.9687 5.43201 98.9665 5.91373 98.7285 6.29313L96.2704 10.2124L98.1053 14.4594C98.283 14.871 98.2117 15.3469 97.9214 15.6884C97.6311 16.0299 97.1724 16.177 96.7378 16.0678L92.2505 14.9411L88.7785 17.9993C88.56 18.1913 88.2818 18.2924 88.0007 18.2924ZM85.7824 9.41224L88.2427 10.8689C88.5761 11.0666 88.7911 11.415 88.8176 11.8013L89.0124 14.656L91.1595 12.7647C91.4509 12.5095 91.8476 12.4141 92.2241 12.5072L94.9977 13.2039L93.8636 10.578C93.7101 10.2228 93.7411 9.81348 93.9469 9.48582L95.4668 7.06227L92.6184 7.33015C92.2327 7.37269 91.8539 7.21058 91.6056 6.91281L89.7712 4.7192L89.1452 7.5095C89.0607 7.88775 88.7957 8.19931 88.4359 8.34417L85.7824 9.41224Z" fill="black"/>
</g>
<defs>
<clipPath id="clip0_1_218">
<rect width="150" height="187.5" fill="white"/>
</clipPath>
</defs>
</svg>
